X:1
T:La chasse du Lievre
T:Nicolas Gombert
T:Source : Le Xième livre de Chansons---Anvers---T.Susato---1545. Editor: André Vierendeels (05/11/13).
T:La chasse du lièvre
C:Nicolas Gombert
%%score [ 1 [ 2 3 ] 4 ]
L:1/8
Q:1/4=106
M:2/2
K:F
V:1 treble nm="Superius" snm="S"
V:2 treble-8 nm="Tenor 1" snm="T 1"
V:3 treble-8 nm="Tenor 2" snm="T 2"
V:4 bass nm="Bassus" snm="B"
V:1
 z8 | z8 | F8 | G4 F4 | B6 B2 | A2 G4 F2 | G8 | z8 | G4 B2 B2 |"^b" A2 G2 FE FG | A2 F4 E2 | %11
w: ||Or|es- cou-|tez tous|vrais _ ve-|neurs,||du liè- vre|fe- rons la _ _ _|_ chas- *|
 F4 z2 G2 | B6 B2 | A3 F G2 A2- | AG F4 E2 | F2 F2 F2 F2 | A3 A G2 G2 | F3 E D4 | z2 G2 B2 B2 | %19
w: se, du|liè- vre|fe- * * rons,|_ la chas- *|se. Res- jou- is-|sons, a- mou- reux|cueurs, _ _|or chas- cun|
 A4 G3 E | F2 G4 F2 | BG AB c3 B | AG F4 E2 | F4 z4 | F2 FG AB c2- | c2 d2 cB AG | F8 | z4 F2 FG | %28
w: plai- sir a-|mas- * *|||se,|as- sem- * blons _ nous,|_ soy- ons _ de- *|het,|son- nez _|
 AB c4 B2 | c2 c2 d4 | z2 A2 F2 G2 | A2 B2 c2 B2- | B2 A4 G2 | A3 G B2 A2- | A2 G2 A4 | z8 | %36
w: vos- trom- pet- tes|et cor- netz,|pour fai- re|l'as- sem- ble- *|||* * e,||
 z2 A2 c3 B/A/ | G2 G2 B3 A/G/ | F2 F2 A3 G/F/ | G2 A2 A2 c2- | cB/A/ G2 G2 B2- | B A/G/ F2 z2 F2 | %42
w: le vent est _|bon, ai- ons tost _|faict, son- nez a _|vant à peu de-|* * * plait, [à peu|_ de- * plait, à|
 (3:2:2c4 c2 (3:2:2B4 B2 | A4 G4- | G4 z2 D2 | (3:2:2G4 G2 (3:2:2F4 F2 | E4 D2 d2 | %47
w: nous est la jour-|ne- e,|_ à|nous est la jour-|ne- e, à|
 cB/A/ G/F/ E/D/ C B,2 C | DE F/G/ A/B/ c2 F2- | F2 E2 F4 | z4 A4- | A8- | A4 z4 | A8- | A4 A4- | %55
w: nous _ _ _ _ _ _ _ _ _|est _ la _ _ _ jour- ne-|* * e,|theuc|_||theuc|_ jouf|
 A4 z2 A2 | A2 A4 A2 | z2 A4 A2- | A2 A2 A4 | G4 F2 F2 | F2 F2 F4 | E8- | E4 E4 | E8 | c8- | c8- | %66
w: _ jouf|jouf jouf jouf|jouf jouf|_ jouf jouf|jouf jouf jouf|jouf jouf jouf|theuc|_ theuc|theuc|theuc.|_|
 c8- | c8- | c8 || z8 | z8 | z8 | z2 A2 A2 A2 | B3 A GF B2 | A2 G3 F/E/ F2 | G2 A2 A2 A2 | %76
w: ||||||Main- te nant|as- sem- blés _ nous|a- vons _ _ des-|chiens, des chiens pour|
 G2 F2 B4 | A4 z2 A2 | A4 z2 A2 | A2 A2 B4 | A2 G2 d4 | c4 z2 c2 | c3 B A2 G2 | F2 B2 A2 G2- | %84
w: nous es- ba-|tre, si|fault, si|fault bien le|buis- son bat-|tre, af-|fin que cour- rent|les fai- * *|
 GF F4 E2 | F4 A4- | A4 z4 | z4 (3c3 c c2 | (3:2:2c4 c2 (3:2:2B4 G2 | (3:2:2A4 B2 (3:2:2c4 c2 | %90
w: |* sons,|_|or lais- sez|cou- rir brif- faut|pre- mier, car il|
 (3:2:2B4 A2 (3:2:2G4 F2 | (3:2:2A4 c2 (3:2:2B4 A2 | (3G2 A3 G (3:2:2F4 E2 | F2 z A A2 A2 | %94
w: scait trop bien le|mes- tier de les-|trou- ver au gis- *|te, aus- si cla-|
 G2 F2 B2 B2 | A2 c2 c2 c2 | B2 A2 A2 G2 | A2 z G G2 G2 | EDEF GE A2 | G2 F3 E/D/ E2 | F4 z2 c2 | %101
w: baut che vieux rou-|tier a- vec cor-|bel, bru- nel, pou-|lier, les- quelz sont|seu- * * * * * res|et ad- * * vi-|sez, te-|
 cBAB cd c2 | A2 c2 cBAB | cd c2 A4 | A8- | A8- | A8 | z2 A2 A2 F2 | G2 A2 B4 | G2 F2 F2 F2 | %110
w: nez bien le- vri- ers et le-|vret- tes par les col- letz|et voz la- cet-|tes,|_||qu'ilz ne fa-|cent dom- mai-|ge de lan- chier|
 E3 C F3 E/D/ |[M:3/2] E4 F2 F4 D2 | D4 G2 G4 E2 | E4 G2 A4 G2 | F2 G4 F4 E2 | F8 G4 | A8 F4 | %117
w: au bos- cai- * *|ge, ain- si au-|rons in- con- ti-|nent de la chas-|se les- ba- te-|ment, de|la chas-|
 F4 B6 A2 | G2 F2 E2 D2 C4 | F6 ED E4 | F12 ||[M:2/2] z4 c4 | c4 c4- | c2 c2 c2 c2 | c4 c4 | %125
w: se les- *||ba- * * te-|ment.|Rau|rau rau|_ quien- ail- le|rau rau|
 A4 z2 A2- | A2 A2 A4 | G4 G2 A2 | A2 G2 F2 A2 | G2 F2 E2 A2 | G2 F2 (3E2 D2 E2 | D2 F3 FFF | %132
w: paux hau|_ hau hau|hau brif- faut|le veult raux paux,|le veult raux paux|raux paux raux _ _|paux, her là je le|
 F2 d3 ddd | d4 c3 c | cc c2 A2 AA | A4 B2 BB | B4 B2 B2 | B2 B2 A2 BA | GA B2 A4 | z4 c4- | %140
w: voy, her, là, je le|voy, her, là,|je le voy et qu'il a|peur, et qu'il a|peur, jouf jouf|jouf jouf et tost il|se des- ro- be|theuc|
 c4 c4 | c6 c2 | c2 c2 c2 z2 | c8 | c4 c4- | c2 c2 c2 c2 | c4 z2 c2- | c2 c2 A3 B | c2 c2 cdcB | %149
w: _ theuc|theuc theuc|theuc theuc theuc|theuc|theuc theuc|_ theuc theuc theuc|theuc hau-|* ber- gier et|li- re li- re li- re|
 AG A/A/B c4 | A2 AA A2 A2 | A2 A2 A2 A2 | A3 G/F/ A2 F2 | (3:2:2F4 G2 (3:2:2A4 B2 | %154
w: li- re li- re- lon fa,|n'as tu point veu cou-|rir le liè- vre|li- re lou- rai- ne|cour là hault par|
 (3:2:2c4 B2 (3:2:2A4 G2 | (3:2:2A4 A2 F4 | A2 GA G2 EE/F/ | G2 AA G2 A2 | F2 GA G4 | A2 GG F4 | %160
w: ces bruy- e- res|li- ron fa|li- re li- ron li- re- lon|fa la ber- gie- re|li- re li- ron|li- re li- ron|
 c2 c2 A3 B | cdcB AGAB | c4 A2 AA | AAAA AAAA/A/ | G2 F2 F2 FG | A2 B2 c3 B | A2 F2 A2 BA | %167
w: hau- ber- gier, ber-|gier et li- re- li- re li- ron|fa, à qui sont|mou- tons que tu mai- nes li- re lou-|rai- ne, ilz sont au|ber- gier qui les|mai- ne, li- re- lon|
 F4 A2 GA | G2 GA B2 F2 | A2 GA G2 B/A/B | F2 G/F/G C4 | c4 c4 | c6 c2 | c4 c2 c2 | c2 c2 c4- | %175
w: fa li- re li-|ron la ber- gie- re|li- re- li- ron li- re- lon|fa li- re- lon fa|hau hau|hau quien-|ail- le bru-|nel, ri- del,|
 c2 A2 A4 | c4 c4 | c6 c2 | c6 c2 | c8 | B2 BB BB B2 | B2 c2 cccc | B2 BB BBBB | A2 A2 z2 c2 | %184
w: _ sou- lart,|her her|her brif-|faut le|veult,|a- vant ma- my- e tu-|sche,- a- vant mes a- mours|tu- sche a- vant mes a- mours|ru- sche, et|
 c2 c2 c4 | A2 AA A4 | B2 BB d4- | d2 c2 c2 c2 | c4 z2 G2 | G2 G2 G2 G2 | G2 G2 G3 F/E/ | %191
w: le ve- cy|et où est il?|Et le ve- là|_ il vient de|cha al-|lez y tost, cop-|pes le bois _ _|
 DBBF BBBB | AAGG GFGG | GEEF EF G2 | A2 F2 F2 F2- | FD E2 DE FG | AB c3 B A2 | G2 F4 E2 | %198
w: _ le ve- là prins aus- si est|il, le ve- là prins aus- si- est|il, le- ve- là prins, ve- là|qu'il y de- meu-|* * re, qu'il _ _ _|_ _ meu- * *||
 F2 c2 c2 c2 | c2 z2 c2 c2 | c2 c2 z4 | B4 B2 B2 | B8 | z2 c2 c2 c2 | c2 c2 c4- | c4 B2 BB | %206
w: re, ha ha ha|ha ha ha|ha ha|hau ha- no-|teau,|que dis tu,|ja- co- teau?|_ Es- cou- tez,|
 BB B4 c2 | cccc c2 c2 | c4 z2 B2 | B2 BB B2 B2 | d8 | c2 cc c4 | c2 cc c2 cc | c8- | c8 || %215
w: il est mort, jay|peur qu'il ne soit des- chi-|ré, se|vous ne vous has- tes|fort,|riens n'y se- ra,|riens n'y se- ra de- mou-|ré.|_|
"^La QUATRIESME PARTIE" A8- | A8 | A8- | A8 | A8 | A4 A4 | A6 A2 | A8 | A4 A2 A2 | A6 A2 | A8- | %226
w: Theuc|_|theuc|_|theuc|theuc theuc|theuc theuc|theuc|theuc theuc theuc|theuc theuc|theuc|
 A8 | A8- | A8 | A4 G2 G2 | F2 F2 G3 G | F2 F2 A2 G2 | F3 E/D/ E2 D2- | D2 C2 D4 | %234
w: _|theuc|_|theuc re- ti-|rons nous, re- ti-|rons nous en brief|es- pa- * * *|* * ce,|
 (3:2:2F4 F2 (3:2:2F4 F2 | (3:2:2F4 F2 F2 A2 | G2 F4 E2 | F6 z2 | z4 A2 BA | GBAG A2 F2 | %240
w: le plus tost que|nous pour- rons, que|_ nous pou-|rons,|tra- vail- lé|som- mes en la chas- se,|
 z4 A2 BA | GBAG F2 B2 | cBAc B AG D/E/ | F G2 F G4 | z2 F2 G4 | A2 F3 F G2- | G2 A2 FF G2- | %247
w: de faim, de|soif que nous a- vons, de|faim, de soif que nous a- * * *|* * * vons,|has- tez|vous tost et sen|_ al- lons, et sen|
 G2 A2 F2 F2 | B3 A G2 GG | A2 F4 FF | G2 _E4 z2 | F2 FE D3 C | z8 | z4 B2 BA | G3 F E2 D2 | %255
w: _ al- lons en|ta- ver- ne pren- dre|gis- te, [pren- dre|gis- te,]|où ce bon liè- vre,||où ce bon|liè- vre men- ge-|
 C4 z2 D2 | E4 CDEF | G2 F4 E2 | F2 z4 A2 | B2 G2 ABcA | Bc d4 cB | A2 A2 A4 | z2 A2 A4 | %263
w: rons à|grant faim des dentz bien|vis- * *|te, à|grant faim des dentz bien vis-||te, je boy|à qui?|
 z2 A2 F2 G2 | A4 z4 | F2 FG A2 c2 | c2 B2 c2 z2 | z8 | A2 AB G2 A2 | B2 G2 F2 z2 | A2 Ad c3 B | %271
w: A mon a-|my,|à mon a- my, ce|po- de- lo,||à mon a- my, ce|po- de- lo,|et moy à ty ce|
 A2 G2 FcBG | A2 z2 z4 | z4 F2 GA | B2 A2 G2 F2 | G2 z2 c3 B | A2 cB A2 G2- | G2 F4 E2 | F4 A2 A2 | %279
w: beau de- my, ce beau de-|my,|où tout d'ung|coup ce de- my-|lot, où- _|_ tout d'ung coup ce|_ de- my|lot, puis nous|
 A2 A2 A2 A2 | A4 A2 AA | A2 A2 A2 A2 | G4 G2 GG | G2 G2 G2 G2 | G4 G3 G | G2 E2 F2 G2 | %286
w: se- rons à re-|pos, quant beut et|men- gé nous au-|rons, puis de- re-|chief com- men- che-|rons tant qu'au-|rons bien de- my-|
 A2 F2 c3 B | A2 Ac B2 A2 | G4 z4 | z6 G2 | GGEE GGEE | GGEE GG E2 | F3 D E3 C | F2 D2 E2 C2 | %294
w: gros, prens là, hos-|tes- se, ve- là le|pot,|ti-|rez à boi- r'aux com- pai- gnons et|a- lu- mez fas- ceaux fa- gotz,|pour aul- cuns chiens|que nous a- vons,|
 F3 F G2 E2 | FF G2 E2 G2 | A2 G2 E4 | z AGA c4 | z AGA c4 |"^b" A2 BA GFEG | AG FE DFGF | %301
w: pour aul- cuns chiens|que nous a- vons, que|nous a- vons,|nos rains au feu|mec- tre vo- lons,|la pan- ce'à ta- * ble, la|pan- ce'à ta- * ble, la pan- ce'à|
 EDCG AG FE/D/ | E2 A,2 C2 D2 | C2 A,2 C2 D2 | C2 G2 c3 B | A2 F2 B3 A | G4 z4 | z4 c2 Bc | %308
w: ta- * ble, le feu au doz, _ _|_ ap- por- tez|nous pou- letz chap-|pons, du beuf, mou-|ton bien gras et|gros,|puis nous com-|
 dBcA G4 | F2 EF GEFD | C8 | F2 AB cBAG | F3 B G2 c2- |[M:2/4] cB/A/ B2 |[M:3/2] c2 A4 B2 G4 | %315
w: pte- rons nos- tr'es- cot,|puis nous com- pte- rons nos- tr'es-|cot,|af- fin que bien nous vous pay-|ons, nous vous pay-||ons, et si pay-|
 A2 F4 G2 E4 | F4 D2 E4 F2 |[M:2/2] E4 c2 cB | AGFB A4- | A4 z4 | c2 cB AGFG | AcFG FG F2- | %322
w: er ne vous pou-|vons, [ne vous pou-|vons,] vous as- si-|gne- rons ung cre- do,|_|vous as- si- gne- rons ung cre-|do, vous as- si- gne- rons ung|
 F2 E2 A2 c2 | cBAG F2 F2 | F2 F2 D2 D2 | C8 |] %326
w: _ cre- do, vous|as- si- gne- rons ung cre-|do, cre- do, cre-|do.|
V:2
 z8 | z8 | z8 | z8 | z8 | z8 | z4 B4 | c4 B4 | _e6 e2 |"^b" e4 d4 | c2 A2 c3 c | B2 A2 G2 g2- | %12
w: ||||||Or|es- cou-|tez tous|vrais ve-|neurs, du liè- vre|fe- rons la chas-|
 gf f4 e2 | f2 F4 E2 | FG AF G2 c2- | c2 A3 B c2 |"^-natural" A2 d3 c/B/ c2 | d2 d2 f2 f2 | %18
w: ||* * * * se. Res-|* jou- is- sons,|a- mou- * * reux|cueurs, or chas- cun|
 e4 d3 B | c2 d4 c2 | d8 | z2 F2 FG AB | c8 | z6 F2 | FG AB c3 d | e2 f2 e2 e2 | d8 | %27
w: plai- sir a-|mas- * *|se,|as- sem- * blons _|nous,|as-|sem- * blons _ nous, _|_ soy- ons de-|het,|
 F2 FG AB c2- | cB AG AG B2 | B2 A2 B2 z d | B2 c2 d2 e2 |"^b" f2 g3 e f2 | g2 f2 d2 e2 | %33
w: son- nez _ _ _ _|_ voz trom- * pet- * tes|et cor- netz, pour|fai- re l'as- sem-|ble- * * e,|pour fai- re l'as-|
 c2 f4 e2 | f2 e2 d4 | z2 d2 f2 ed | c4 z2 c2 | e3 d/c/ B2 B2 | d3 c/B/ c3 d | e2 f e/d/ c2 c2 | %40
w: sem- ble- *|* * e,|le vent est _|bon, le|vent est _ bon, ai-|ons _ _ tost _|_ faict, _ _ _ son|
 e3 d/c/ B2 B2 | d3 c/B/ A4 | z2 c2 g3 g | f3 f e4 |"^b" d2 e3 d d2- | d2 c2 d4 | A4 z4 | %47
w: nez a- * vant à|peu de- * plait|à nous est|la jour- nee,|à nous est la|_ jour- ne-|e,|
 z2 c2 (3:2:2g4 g2 | (3:2:2f4 f2 e2 d2 | c4 A4 | f2 f2 f3 f | f2 f2 z4 | f2 f2 f3 f | f2 f4 e2 | %54
w: à nous est|la jour- ne- *|e, her|her her qui en|ail- le,|her her her tri-|pail- le vient|
 f3 c f2 f2 | f2 f2 f2 f2- | f2 e2 f4 | c2 f2 f2 f2 | f2 f3 fff | e4 d2 d2 | d2 d2 d4 | c8- | %62
w: cha brif- faut, vient|cha cla- baut her-|_ cha bru-|nel vient tost cor-|bel cha ma- my- e|tus- sche jouf|theuc jouf jouf|jouf|
 c4 c4- | c4 z2 c2- | c2 c2 c2 A2 | F2 f4 e2- | e2 f2 e2 e2 | e2 e2 e4- | e8 || e4 e2 e2 | %70
w: _ jouf|_ jouf|_ jouf jouf jouf|jouf jouf jouf|_ jouf jouf jouf|jouf jouf jouf.|_|Main- te- nant|
 f3 e g2 f2 | e2 d4 c2 | d2 f2 f2 f2 | f4 d2 d2 | e2 c2 d4 | z2 d2 f2 cd | ec f3 e/d/ e2 | %77
w: as- sem- blés nous|a- * *|vons, main- te- nant|as- sem- blés|nous a- vons|des chiens pour _|nous _ es- * * ba-|
 f4 z2 f2 | f2 f2 f2 c2 | d2 e2 f4- | f2 ed f2 f2 | f4 z2 f2 | f2 f2 (3c2 d2 e2 | f2 e2 c2 _e2- | %84
w: tre, si|fault il bien le|buis- son bat-|* * * tre, af-|fin, af-|fin que cou- * *|rent les fai- *|
 ed cB c4- | c8 | z8 | (3f3 f f2 (3:2:2f4 f2 | (3:2:2e4 c2 (3:2:2d4 e2 | (3:2:2f4 f2 (3:2:2e4 c2 | %90
w: * * * * sons,|_||or lais- sez cou- rir|bruf- faut pre- mier,|car il scait trop|
 (3d3 e f2 (3:2:2d4 d2 | (3:2:2c4 f2 (3:2:2f4 e2- | (3:2:2e2 c4 (3:2:2d2 c4 | A2 c2 d2 f2 | %94
w: bien le mes- tier de|les trou- ver au|gis- te, aus- si|cla- baut che vieux|
 e2 c2 f2 ed | c2 c2 f2 e2 | e2 c2 f2 e2 | c2 z e d2 d2 | c2 e4 dc | d2 B2 c2 c2 | cBAB cd c2 | %101
w: rou- tier a- vec _|cor- bel, pou- lier,|les- quels sont seu-|res les- quelz sont|seu- res et- ad-|vi- sez, te- nez|bien le- vri- ers et le- vret-|
 A2 c2 cBAB | cd c2 A2 c2 | cBAB cd c2 | A2 f2 fede | fg f2 d2 f2 | fede fg f2 | d2 d2 c3 d | %108
w: tes par les col- letz et|voz la- cet- tes, par|les col- letz et voz la- cet-|tes, par les col- letz et|voz la- cet- tes, par|les col- letz et voz la- cet-|tes, qu'ilz ne fa-|
 e2 e2 f4 | e2 d2 c3 B | c2 c2 d4 |[M:3/2] c4 c2 c4 B2 | B4 d2 d4 c2 | c4 e2 e4 e2 | %114
w: cent dom- mai-|ge de lan- chier|au bos- cai-|ge, ain- si au-|rons in- con- ti-|nent de la chas-|
 d3 c d2 c2 d2 c2 | c8 e4 | f8 d4 | d8 _e4- | e2 f2 g4 f4 | d4 c8 | c12 ||[M:2/2] z8 | z4 f4 | %123
w: se les es- ba- * te-|ment, de|la chas-|se les-|* * ba- *|* te-|ment.||Rau|
 f4 f4- | f2 f2 f2 f2 | f2 f2 f4- | f4 f4 | e4 e4 | e4 c4 | c6 c2 | c4 c4 | A2 d3 ddd | d2 f3 fff | %133
w: rau rau|_ quien- ail- le|hau hau paux|_ jouf|jouf jouf|jouf brif-|faut le|veult raux|paux, her là, je le|voy, her, là, je le|
 f4 e4 | f2 e2 f2 ff | f2 f2 ff f2 | gg f2 d2 dd | d4 f2 ga | ba g2 f4 | f2 ff ff f2 | %140
w: voy, jouf|jouf jouf jouf- ha- lu-|vart, jouf ha- lu- vart,|ha- lu- vart et quil a|peur et tost il|se des- ro- be|jouf jouf jouf jouf haup haup|
 e2 e2 z2 e2 | e4 A2 AA | A2 A2 G2 A2- | AAGG A4 | G2 G2 GGGG | G2 A2 A2 AA | c2 BA G4 | A4 z2 c2 | %148
w: haup haup haup|haup viens cha quien-|ail- le, viens cha|_ mec- tons sur rou-|te,- viens cha quien- ail- le,|mec- tons sur rou- te,|mec- tons sur rou-|te et|
 cdcB AG A/A/B | c2 F2 F2 F2 | F2 F2 F4 | f2 ff f2 ff/f/ | ff f/f/d f2 c2 | %153
w: li- re li- re li- re li- re li-|ron hau que vous|plait mon- seur|nas tu point veu cou- rir le|liè- vre,- li- re lou- rai- ne|
 (3:2:2c4 c2 (3:2:2f4 f2 | (3:2:2f4 f2 (3:2:2f4 f2 | (3f3 e f2 c2 aa/a/ | ffgf e2 gg/f/ | %157
w: cour là hault par|ces bruy- e- res|li- re- lon fa li- re li-|ron li- re li- ron li- re- lon|
 e2 ff e2 f2 | a2 gf e4 | f2 ee c4 | z2 f2 f2 f2 | f2 f2 f2 f2 | f2 f2 f2 f2 | c2 d2 d2 d2 | %164
w: fa la ber- gie- re|li- re- lon fa|li- re- lon fa-|jouf jouf jouf|jouf jouf jouf ha|hau hau quien- ail-|le hoir hoir hoir|
 d2 c2 ffff | f2 d2 z2 f2- | ffff ffff | d2 f2 f2 z f | d2 e2 f2 d2 | f2 ef d2 d2 | d4 e4 | %171
w: hoir ve- la qu'il y de-|meu- re, hau|_ rau rau cor- bel, bor- del sou-|lart, sou- lart, jouf|jouf jouf jouf jouf|jouf jouf jouf jouf fouf|jouf hau|
 e4 e4- | e2 e2 e2 e2 | e4 e2 e2 | e6 c2 | c8 | z2 f2 f2 f2 | e4 e2 e2 | e6 c2 | c2 A2 AAAA | %180
w: raux rau|_ quien- ail- le|bru- nel, ri-|del, sou-|lart,|her her her|her her brif-|faut le|veult, a- vant mes a- mours|
 d2 d2 dddd | d2 c2 cAAA | d2 dd dddB | c2 c2 z4 | f8- | f8 | f8- | f8 | z2 c2 d2 _e2 | %189
w: tu- sche, a- vant mes a-|mours tu- sche, a- vant mes|a- mours tu- sche, a- vant mes|a- mours,|theuc|_|theuc|_|al- lez y|
"^b""^b""^b" ddee d2 e2 |"^b""^b" d2 e2 e4 | f2 ff g2 f2 | f2 d2 ffdd | egga g f2 e | f2 c2 A3 A | %195
w: tost cop- pes le bois, cop-|pes le bois,|le ve- là prins aus-|si est il, ve- là qu'il|y de- meu- re,- _ _ _|_ il fault qu'il|
 dd c2 A2 d2 | e6 dc | d2 B2 c4- | c4 z2 f2 | f2 f2 f2 f2 | F2 F2 B2 BB | B2 g2 gg g2 | %202
w: y de- meu- re, qu'il|y de- *|meu- * re,|_ ha|ha ha ha ha|ha ha hau ha- no-|teau, hau ha- no- teau,|
 g2 gg g3 g | gggg g4 | z2 e2 fgff | _e2 e2 e2 e2 |"^b""^b""^b" e2 e2 e2 e2 | eeee f2 f2 | e4 z4 | %209
w: hau ha- no- teau, que-|dis tu, ja- co- teau,|que dis tu, ja- co-|teau? Es- cou- tez,|il est mort, jay|peur qu'il ne soit des- chi-|ré,|
 f8 | f8- | f8- | f8- | f8- | f8 || F4 F4 | f4 f4 | e3 e e2 e2 | f3 f ffff | e3 e eeee | f4 f4 | %221
w: theuc|theuc|_||||Ha ha|ha ha|quien- ail- le ha|quien- ail- le ha ha ha|quien- ail- le ha ha ha|jouf jouf|
 f4 f4 | f4 f4 | f4 f4 | f2 c2 f2 f2 | f2 f2 f2 c2 | f2 f2 f2 f2 | f4 z2 c2 | f2 f2 f2 c2 | %229
w: jouf jouf|jouf jouf|jouf jouf|jouf jouf jouf jouf|jouf jouf jouf jouf|jouf jouf joufn jouf|jouf ha|ha cla- baut ha|
 f2 f2 e4 | d4 c2 c2 | d3 d e2 e2 | d2 z d c2 B2 | B2 AG A2 BB | d3 d c2 c2 | d4 c3 f | %236
w: ha brif- faut|re- ti- rons|nous, re- ti- rons|nous en brief es-|pa- * * ce, le plus|tost que nous pour-|rons, le plus|
 e2 c2 d2 c2 | A4 z4 | z6 d2 |"^b""^b" edce dc d2 | B2 z4 d2 |"^b""^b" edce dc B2 | _e2 fe d2 z2 | %243
w: tost que nous pour-|rons,|tra-|vail- lé som- mes en la chas-|se, de|faim, de soif que nous a- vons,|que nous a- vons,|
 c2 d4 e2 | c2 d2 d2 e2 | c2 d4 d2 | e2 c2 d4 | e2 c2 d4- | d2 B2 e3 d | c2 cc d4 | B2 BB c3 B | %251
w: has- tes vous|tost, has- tes vous|tost- et sen|al- lons, et|sen al- lons|_ en ta- ver-|ne pren- dre gis-|te, pren- dre gis- *|
 A2 B2 z4 |"^b""^b" e2 ed c2 B2 | A2 G4 F2 | _e2 ed c2 B2 | A2 G2 F4 | z2 G2 AFGA | B2 A2 G4 | z8 | %259
w: * te,|où ce bon liè- vre|men- ge- rons,|où ce bon liè- vre|men- ge- rons|à grant faim des dentz|bien vis- te,||
 d2 e2 cdef | g2 f4 e2 | f4 z2 f2 | f4 z2 f2 | f4 z4 | z2 F2 G2 A2 | B4 z4 | f2 eg e2 f2 | %267
w: à grant faim des dentz bien|vis- * *|te, je|boy, à|qui?|A mon a-|my,|à mon a- my, ce|
 g2 f4 e2 | f2 z2 e2 ee | f2 e2 d2 d2 | c2 z2 z4 | z4 c2 de | f3 e d2 c2 | Bfec d4 | B2 cd eedc | %275
w: po- de- *|lo, à mon a-|my, ce po- de-|lo,|et moy à|ty ce beau de-|my, ce beau de- my,|où tout d'ung coup ce de- my|
 Bcde f3 d | f3 d e2 e2 | d2 c2 cccc | d4 z2 c2 | f3 f ff e2 | ccff ff e2 | d2 z2 ABcd | %282
w: lot, où tout d'ung coup ce|de- my lot, où|tout d'ung coup ce de- my|lot, puis|nous se- rons à re-|pos, puis nous se- rons à re-|pos, quant beut et men-|
 e2 ee d2 z e |"^b" d2 e2 deee |"^b""^b""^b""^b" eedc B2 ee | e3 c d3 e | f4 z2 c2 | f3 e d2 df | %288
w: gé nous au- rons, puis|de- re- chief com- men- che-|rons, com- men- che- rons tant qu'au-|rons bien de- mi-|gros, prens|là, hos- tes- se, ve-|
 e3 d c2 c2 | fedd/d/ c2 B2 | cccc cccc | cccc cccc | d4 z2 c2 | A2 B2 GGAA | Fc d2 B2 cc | %295
w: là le pot, prens|là, hos- tes- se ve- là le|pot, ti- rez à boi- re'aux com- pai-|gnons et a- lu- mez fas- ceaux fa-|gotz, pour|aul- cuns chiens que nous a-|vons, que nous a- vons, que|
 ABGB c2 e2 | d4 c4 | z3 f ef a2- | a2 z f ef a2 | z2 d2 _ed c2 | ccdc B2 B2 | cBAG c2 c2 | %302
w: nous a- vons, que nous _|a- vons,|nos rains au feu,|_ nos rains au feu|la pan- ce'à ta-|ble; le- feu au doz, le|feu au doz, le feu au|
 c2 z c f2 f2 | e2 c2 f2 f2 | e6 c2 | f3 e d2 B2 |"^b" e3 d c4 | z2 f2 efge | fd c2 e2 dc- | %309
w: doz, ap- por- tez|nous pou- letz chap-|pons, du|beuf mou- ton bien|gras et gros,|puis nous com- pte- rons|nos- tr'es- cot, puis nous com-|
 cBcA B c2 B | c2 z2 F2 AB | cBAG FGAB | c2 f2 e2 g2- |[M:2/4] gf g2 |[M:3/2]"^b" e4 f2 d2 e4 | %315
w: * pte- rons nos- tr'es- * *|cot, af- fin que|bien nous vous pay- ons, af- fin que|bien nous vous pay-||ons, et si pay-|
 c2 d4 B2 c4 | A2 d4 c4 B2 |[M:2/2] c2 c2 cBAG | FBAG F4 | z4 B2 AG | A3 G F2 f2 | fedc dedd | %322
w: er ne vous pou-|vons, ne vous pou-|vons, vous as- si- gne- rons|ung cre- do, cre- do,|ung cre- do,|ung cre- do, vous|as- si- gne- rons ung cre- do, cre-|
 c2 c3 BAG | F2 f2 fedc | BAdc B2 B2 | A8 |] %326
w: do, ung cre- do, cre-|do, vous as- si- gne- rons|ung cre- do, cre- do, cre-|do.|
V:3
 F8 | G4 F4 | B6 B2 | B4 A4 | G4 z2 B2 |"^b""^b" e2 e2 d4 | c2 B3 A GF | G4 F4 | z8 | z2 G2 B2 B2 | %10
w: Or|es- cou-|tez tous|vrais ve-|neurs, du|liè- vre fe-|rons la _ _ _|chas- se,||du lè- vre|
 A3 F G4 | d3 c B2 d2- | dc BA B4 | c4 z2 c2 | A3 B c2 G2 | A2 c3 B AG | F4 z2 G2 | B2 B2 A4 | %18
w: fe- rons nous|la _ _ chas-||se. Res-|jou- * is- sons,|a- mou- * reux _|cueurs, or|chas- cun plai-|
 G4 z4 | z4 G4 | B2 B2 A4 | G2 cB AG F2 | A4 G4 | F2 FG AB c2 | d2 cB AG F2 | z2 B2 G2 c2 | %26
w: sir|a-|mas- se, plai-|sir a- * * * mas-|se, _|as- sem- * blons _ nous,|soy- ons _ de- * het,|soy- ons de-|
 A2 B2 Bc de | f2 F2 FG AB | c2 CD EC F2- | F2 E2 F4 | z8 | z6 B2 | G2 A2 B2 c2- | cA d4 c2 | %34
w: het, son nez- trom- pet- *|tes, son- nez trom- pe- *|tes et _ _ _ _|_ cor- netz,||pour|fai- re- l'as- e-|sem- * ble- *|
 B4 A2 F2- | FG A4 G2 | A8 | z2 E2 G3 F/E/ | D2 D2 F3 E/D/ | C2 F2 z2 A2 | c3 B/A/ G2 G2 | %41
w: ||e,|le vent est _|bon, ai- ons _ _|tost faict, son-|nez a- * vant à|
 B3 A/G/ F2 D2 | E2 F3 D E2 | F2 z F (3:2:2c4 c2 | (3:2:2B4 B2 (3:2:2A4 A2 | G4 A2 F2 | %46
w: peu de- * plait, à|peu de- * *|plait, à nous est|la jour- ne- e,|à nous est|
 (3:2:2c4 c2 (3:2:2B4 B2 | A4 G2 G2 | A2 GF A2 B2 | G4 F4 | z2 c2 c2 c2- | cc c2 c4 | %52
w: la jour- ne- e|à nous est|la jour- * * *|ne- e,|her her qui|_ en ail- le,|
 z2 c2 c2 c2- | cc c2 c4 | z2 c2 c2 c2 | c2 z c c2 c2 | d2 c4 c2 | c4 c3 c | c2 c2 c2 c2- | %59
w: her her her|_ tri- pail- le,|vient cha brif-|faut, vient cha cla-|baut her bru-|nel vient cha|cor- bel cha ma-|
 cccc A2 A2 | A4 B4 | z2 G4 G2 | G2 A2 AAGE | G2 GG GGGG | G2 G2 A2 c2 | A2 F2 A2 G2 | A4 A2 F2 | %67
w: * my- e tus- sche jouf|jouf jouf|jouf jof|cha ma- my- e tus- sche|her brou- tart her sou- lart jouf|jouf jouf jouf jouf|jouf jouf jouf jouf|jouf jouf jouf|
 G2 A2 A4- | A8 || z4 c4 | c2 c2 d3 c | B2 A2 G4 | A2 d2 c2 c2 | d3 c BA d2 | cB AG A4 | %75
w: jouf jouf jouf.|_|Main-|te- nant as- sem-|blés nous a-|vons, main- te- nant|as- sem- * * blés|nous _ _ _ a-|
 G2 F2 A3 B | c2 d4 cB | c2 d2 c4 | z2 d2 cB AG | F2 c2 d4 | c2 B2 A4 | z2 A2 A4 | z2 c2 c3 B | %83
w: vons des chiens pour|nous es- * *|* ba- tre,|si fault _ bien _|le buis- son|ba- * tre,|af- fin,|af- fin que|
 A2 G2 F2 B2- | BA F2 G4 | A4 z4 | (3c3 c c2 (3:2:2c4 c2 | (3:2:2B4 B2 (3:2:2A4 A2 | %88
w: cour- rent les fai-||sons,|or lais- sez cou- rir|brif- faut le pre-|
 (3c3 B A2 (3:2:2G4 G2 | (3:2:2d4 d2 (3:2:2c4 A2 | (3:2:2B4 c2 (3:2:2B4 B2 | %91
w: mier _ _ car il|scait trop bien le|mes- * tier de|
 (3:2:2A4 A2 (3:2:2d4 c2 | (3:2:2c4 A2 (3:2:2B2 G4 | F2 z F F2 F2 | G2 A2 A2 G2 | A2 z A A2 A2 | %96
w: les trou- ver au|gis- * * *|te, aus- si cla-|baut che vieux rou-|tier a- vec cor-|
 G2 F2 B2 B2 | A2 z c B2 B2 | G2 c3 B AG | BA GF G4 | F2 c2 cBAB | cd c2 A2 c2 | cBAB cd c2 | %103
w: bel, bru- nel, pou-|lier, les- quelz sont|seu- res et ad- *|vi- * * * sez,|te- nez bien le- vri- ers|et le- vret- tes par|les col- letz et voz la- cet-|
 A4 z4 | F2 FE DEFG | F2 D2 F2 FE | DEFG F2 D2 | F4 A2 A2 | c2 c2 d4 | c2 A2 A2 F2 | G2 A2 B4 | %111
w: tes,|par les col- letz et voz la-|cet- tes, par les col-|letz et voz la- cet- tes,|qu'ilz ne fa-|cent dom- mai-|ge de lan- chier|au bos- cai-|
[M:3/2] G4 A2 A4 F2 | F4 B2 B4 G2 | G4 c2 c4 c2 | A2 B4 A2 G4 | F8 c4 | c4 A4 B4- | %117
w: ge, ain- si au-|rons in- con- ti-|nent de la chas-|se les- ba- te-|ment, de|la chas- se|
 B2 A2 G2 F2 _E4 | c6 B2 A2 G2 | B4 G8 | F12 ||[M:2/2] A8- | A8- | A8- | A8 | z2 c4 c2 | c6 c2 | %127
w: _ _ _ _ les-|ba- * * *|* te-|ment.|Theuc|_|||rau rau|rau quien-|
 c2 c2 c4 | c4 A3 F | G2 A2 G2 z F | G2 A2 G2 G2 | F2 B3 BBB | B4 A3 A | AA A2 A2 G2 | %134
w: ail- le rau|raux paux brif-|faut le veult brif-|faut le veult raux|paux, her là, je le|voy, her, là,|je le voy, jouf jouf|
 A2 G2 cc c2 | dd c2 d2 dd | d4 ff f2 | ff f2 z2 d2 | dddd d2 d2 | cc c2 AA A2 | G2 A2 G2 A2 | %141
w: jouf jouf ha- lu- vart,|[ha- le- vart] et qu'il a|peur, ha- lu- vart,|ha- lu- vart, et|tost il se des- ro- be,|jouf jouf jouf houp houp houp|houp houp houp houp|
 G2 AA E2 E2 | F2 E4 F2 | E2 E2 F2 F2 | E2 E2 EEEE | E2 EE FE A2- | AG F4 E2 | F2 c4 c2 | %148
w: vien cha quien- ail- le|vuou vuou vuou|vuou vuou vuou vuou|vuou viens cha quien- ail- le,|mec- tons sur rou- * *||te, hau- ber-|
 A3 B c2 c2 | cdcB AG A/A/B | c4 c2 cc | c2 cc/c/ c2 c2 | c3 c/A/ c2 A2 | (3:2:2A4 B2 (3:2:2c4 d2 | %154
w: gier, ber- gier et|li- re li- re li- re li- re- lon|fa,- n'as tu point|veu cou- rir le liè- vre|li- re lou- rai- ne|cour là haut par|
 (3:2:2A4 d2 (3:2:2c4 B2 | (3:2:2c4 d2 A2 c2 | c6 c2 | c2 c2 c2 c2 | c2 c2 c4- | c2 c2 A4- | %160
w: ces bruy- e- res|li- ron fa hau|hau de|par dieu mon a-|my cor- bel-|* le vault|
 A4 c2 c2 | A3 B cdcB | AGAB cccc | AAFF FFFF/F/ | B2 A2 A2 d2 | c2 B2 A2 AB | c2 A2 d3 d/d/ | %167
w: _ hau ber-|gier et li- re li- re|li- re li- re- lon, à qui sont|mou- tons que tu mai- ne li- re lou-|rai- ne, ilz sont|au ber- gier qui les|mai- ne li- re- lon-|
 A2 d2 c2 Bc | B2 cc d2 B2 | c2 Bc B2 dd/d/ | B2 B2 B/B/ G2 G/G/ | A4 G2 G2 | EF G2 A4 | %173
w: fa et li- re li-|ron, la ber- gie- re|li- re li- ron li- re- lon|fa li- re- lon fa li- re-|lon, que vous|plaist il mon- sei-|
 G3 G A2 AA | A2 A2 A2 A2 | A3 A/F/ A2 F2 | (3:2:2F4 G2 (3:2:2A4 B2 | (3:2:2c4 B2 (3:2:2A4 G2 | %178
w: gneur, va ce che- min|qui ver- doi- e|li- re lou- rai- ne,|tu vois bien qui|ne se bou- ge,|
 (3:2:2A4 B2 c2 A2- | AF A/A/F c2 A2 | G3 A B2 F2 | G2 AG F4 | G2 GB F2 G/A/F | F4 A2 AA | %184
w: li- ron fa li-|* re li- re- lon fa li-|re lou- rai- ne|li- re li- re|li- re- lon fa li- re- lon|fa, et- le ve-|
 A4 c2 cc | dddd d4 | d2 dd dBBB | A2 A2 A4- | A4 B4 | B2 B2 B2 B2 | B2 B2 B4- | B2 d2 d2 d2 | %192
w: cy, et où est|il, et où est il?|Et le ve- là, il vient de|cha de cha,|_ al-|lez y tost cop-|pes le bois,|_ ve- là prins|
 c2 B2 A2 B2 | c6 c2 | c2 A2 c2 d2 | B2 AG FG AB | c3 B/A/ G2 c2 | BA GF G4 | F2 A2 A2 A2 | %199
w: aus- si est il,|ve- là,|qu'il y de- meu-||* * * re, il|fault, _ _ _ _|il fault qu'il meu-|
 A2 z2 A2 A2 | A2 A2 d2 d2 | dd d2 dd d2- | d2 d2 _e2 e2 |"^b""^b""^b" e2 e2 e4 | cBAG AGAA | %205
w: re, ha ha|ha ha hau hau|ha- no- teau, ha- no- teau,|_ que dis tu,|ja- co- teau,|que _ _ _ dis tu, ja- co-|
 G4 G2 GG | GG G4 A2 | AGAG A2 A2 | A2 G3 ABc | de f2 d2 d2 | d3 c/B/ A2 B2 | A4 A2 AA | A4 A2 AA | %213
w: teau? Es- cou- tez,|il est mort, jay|peur qu'il ne soit des- chi-|ré, se vous ne vous|has- tes fort, ne vous|has- * * * tes|fort, riens n'y se-|ra, riens n'y se-|
 A2 AA A4- | A8 || c4 c2 c2 | c2 c2 c2 c2- | c2 c3 c c2 | c2 c2 c2 c2- | cc c2 c2 c2 | %220
w: ra de- mou- ré.|_|Ha ha ha|ha ha ha ha|_ her her her|quien- ail- le her|_ her her tri- pail-|
 c2 F2 AB c2- | cd c3 B c2 | F2 c2 c2 c2 | F2 c2 c2 c2 | AB c2 A2 d2- | d2 c2 AB c2 | A2 d4 c2 | %227
w: le vien cha brif- faut,|_ vien cha cla- baut|ha ha bru- nel|ha ha cor- bel|cha ma- my- e tus-|* sche cha mes a-|mours ru- sche|
 F2 c2 c2 c2 | F2 c2 c2 c2 | c8 | A4 G2 G2 | B2 A2 c2 c2 | A2 z B G2 F2 | G4 F2 FF | %234
w: ha ha cla- baut|ha ha ha brif-|faut|re- ti- rons|nous, re ti- rons|nous, en brief es-|pa- ce, le plus|
 (3:2:2B4 B2 (3:2:2A4 A2 | B4 A3 B | c2 A2 B2 G2 | F2 A2 BAGB | AG A2 F4 | z4 z ABA | GBAG F4 | %241
w: tost que nous pou-|vons, le plus|tost que nous pour-|rons, tra- vail- lé som- mes|en la chas- se,|de faim, de|soif que nous a- vons,|
 z2 A2 BAGB | AG F2 B2 cB | AcBA G2 G2 | A2 B4 G2 | z2 A2 B4 | c2 A3 A B2 | c2 A2 B4 | z2 G4 c2- | %249
w: de faim, de soif que|nous a- vons, de faim, de|soif que nous a- vons, que|nous a- vons,|has- tez|vous tost et sen|al- * lons|en ta-|
 cB A2 AA B2- | B2 G2 GG A2 | F4 z4 | B2 BA G3 F | E2 E2 D4 | B2 BA G2 F2 | E2 E2 D4 | z8 | %257
w: * ver- ne pren- dre gis-|* te, pren- dre gis-|te,|où ce bon liè- vre|men- ge- rons,|où ce bon liè- vre|men- ge- rons||
 z4 B2 c2 | ABGA B2 A2 | G2 c3 B A2 | G2 A2 B4 | c2 c2 c4 | z2 c2 c4 | z2 c2 d2 cB | A2 z d B2 c2 | %265
w: à grant|faim des dentz bien vis- te,|à grant faim des|dentz bien vis-|te, je boy,|à qui?|A mon a- *|my, à mon a-|
 ddde cdef | d4 c2 cd | B2 c2 d2 B2 | c2 z2 c2 cc | d2 c2 A2 B2 | A4 A2 Ad | c3 B A2 G2 | %272
w: my, ce po- de- lo, ce po- de-|lo, à mon a-|my, à mon a-|my, à mon a-|my, ce po- de-|lo, et moy à|ty ce beau de-|
 F2 z2 z4 | F2 GA BAGF | G2 z2 z4 | z4 A3 B | c2 AB c2 c2 | B2 A2 G2 G2 | B2 B2 c2 A2 | %279
w: my,|où tout d'ung coup ce de- my|lot|où tot|d'ung coup ce de- my|lot, d'ung- coup ce|de- my lot, puis|
 ccdc d2 c2 | ABcA d2 c2 | F2 AB cd e2 | EFGA BG c2 | B2 Bc cBcc |"^b""^b" Bcde d2 cc | %285
w: nous se- rons à re- pos,|puis nous se- rons à re-|pos, quant beut et men- gé,|quant beut et men- é nous au-|rons, puis de- re- chief com- men-|che- rons tant qu'au- rons ung de-|
 c2 G2 B2 B2 | A8 | z6 F2 | c3 B A2 Ac | B2 A2 G4 | z GAG EEGG | EEGG EEGG | G2 B2 G2 A2 | %293
w: my gros, de- my|gros,|prens|là, hos- tes- se, ve-|là le pot,|ti- rez à boi- re'aux com- pai-|gnons et a- lu- mez fas- ceaux fa-|gotz, pour aul- cuns|
 FFGG E2 z c | A2 B2 G2 z e | cdBG AG c2- | c2 B2 GAGA | c3 c c2 F2 | c2 c2 c2 F2 | c2 z A BAGG | %300
w: chiens que nous a- vons, que|nous a- vons, pour|aul- cuns chiens que nous a- vons,|_ a- vons, noz rains au|feu mec- tre vo-|lons, mec- tre vo-|lons, la pan- ce'à ta- ble,|
 z GAG FF z F | GFEE FG AG/F/ | G2 z F A3 B | G2 z F A3 B | GG c3 B A2 | F2 B3 AGG | c3 B A2 z c | %307
w: la pan- ce'à ta- ble, la|pan- ce'à ta- ble, le feu au- * *|doz, ap- por- tez|nous po- letz chap-|pons, du beuf, mou- ton|bien gras et gros, bien|gras et gros, puis|
 BcdB cAGA | FG A2 c2 BG | AFGA GAFG | A2 F2 ABcB | AGFG AB c2 | A2 d2 cd ec |[M:2/4] d4 | %314
w: nous com- pte- rons nos- tr'es- cot, puis|nous com- pte- rons nos- tr'es-|cot, puis nous comp- te- rons nos- tr'es-|cot, af- fin que bien nous|vous pay- ons, af- fin que bien|nous vous pay- * * *||
[M:3/2] c4 d2 B4 c2 | A4 B2 G4 A2 | A4 B2 G4 F2 |[M:2/2] G4 z4 | z4 c2 cB | AGFA GFED | %320
w: ons, et si pay-|er ne vous pou-|vons, ne vous pou-|vons,|vous as- si-|gne- rons ung cre- do, cre- do, cre-|
 E2 c2 cBAG | FGBG AcAB | G4 c2 cB | AGFG A2 z A | F3 A F2 F2 | F8 |] %326
w: do, vous as- si- gne- rons|ung cre- do, cre- do, cre- do, cre-|do, vous as- si-|gne- rons ung cre- do, cre-|do, cre- do, cre-|do.|
V:4
 z8 | z8 | z8 | z8 | z4 B,,4 | C,4 B,,4 | _E,6 E,2 |"^b" E,4 D,4 | C,4 z4 | C,4 D,2 B,,2 | %10
w: ||||Or|es- cou-|tez tous|vrais ve-|neurs,|du liè- vre|
 F,3 E, C,2 E,2 | D,E, F,2 G,2 B,2- | B,A, G,F, G,4 | F,4 z2 C,2 | D,4 C,4 | F,6 F,2 | %16
w: fe- rons nous la|chas- * * * *||se. Res-|jou- is-|sons, a|
 F,2 E,D, E,4 | D,8 | z6 D,2 | F,2 F,2 E,4 | D,8 | z6 F,,2 | F,,G,, A,,B,, C,4 | %23
w: mou- * * reux|cueurs,|or|chas- cun plai-|sir|a|sem- * blons _ nous,|
 z2 D,2 C,B,, A,,G,, | F,,2 F,,2 F,,G,, A,,B,, | C,2 B,,2 C,2 C,2 | D,4 z2 B,,2 | %27
w: soy- ons _ de- *|het, as- sem- * blons _|nous, soy- ons de-|het, son-|
 B,,C, D,E, F,2 F,,2 | F,,G,, A,,B,, C,2 D,2 | C,2 C,2 B,,4 | z8 |"^b" z2 E,2 C,2 D,2 | %32
w: nez _ _ _ _ trom-|pet- * * * * tez|et cor- netz,||pour fai- re|
"^b""^b" E,2 F,2 G,2 E,2 | F,2 D,2 B,,2 C,2 | D,2 E,2 F,3 E, | D,3 C, B,,4 | A,,4 z2 A,,2 | %37
w: l'as- sem- ble- *|* * e, pour|fai- re l'as- *|sem- * ble-|e, le|
 C,3 B,,/A,,/ G,,2 G,,2 | B,,3 A,,/G,,/ F,,4 | z2 D,2 F,3 E,/D,/ |"^b" C,2 C,2 E,3 D,/C,/ | %41
w: vent est _ bon, ai-|ons tost _ faict,|son nez a- *|vant à peu de- *|
 B,,2 B,,2 D,3 C,/B,,/ | A,,4 z4 | z6 C,2 | (3:2:2G,4 G,2 (3:2:2F,4 F,2 |"^b" E,4 D,4 | z6 B,,2 | %47
w: plait, à peu de- *|plait,|à|nous est la jour-|ne- e,|à|
"^b""^b" (3:2:2F,4 F,2 (3:2:2E,4 E,2 | D,4 C,2 B,,2 | C,4 F,,2 F,2 | F,2 F,3 F, F,2 | F,4 z2 F,2 | %52
w: nous est la jour-|ne- * *|* e, her|her her brif- faut|her her|
 F,2 F,3 F, F,2 | F,4 z4 | F,8- | F,8 | z4 F,4 | F,8- | F,8 | C,4 D,2 D,2 | D,2 D,2 B,,4 | %61
w: her her tri- pail-|le|theuc|_|theuc|theuc|_|jouf jouf jouf|jouf jouf cha|
 z2 C,3 C,C,C, | C,2 A,,2 C,2 C,C, | C,3 C, C,2 C,2 | C,2 C,2 A,,2 F,,2 | C2 A,2 F,2 C,2 | %66
w: mes a- mours thus-|ce her her brou- tart|her brou- tart her|her her sou- lart|her her sou- lart|
 A,,2 F,,2 A,,2 C,2 | C,2 A,,2 A,,4- | A,,8 || z4 A,4 | A,2 A,2 B,3 A, | G,2 F,2 E,4 | %72
w: jouf jouf jouf jouf|jouf jouf jouf.|_|Main-|te- nant as- sem-|blés nous a-|
 D,2 D,2 F,2 F,2 | B,,6 B,,2 | C,2 E,2 D,4 | G,,2 D,2 D,2 F,2 | E,2 D,2 G,4 | F,2 D,2 F,4 | %78
w: vons, main- te- nant|as- sem-|blés nous a-|vons des chiens pour|nous es- ba-|* * tre,|
 z2 D,2 F,3 E, | D,2 C,2 B,,C, D,E, | F,2 G,2 D,4 | z2 F,2 F,4 | z2 F,2 F,2 C,2 | %83
w: si fault, si|fault bien le _ buis- *|son ba- tre,|af- fin,|af- fin que|
 D,2 E,2 F,2 _E,2- | E,2 F,2 C,4 | F,,4 (3F,3 F, F,2 | (3:2:2F,4 F,2 (3:2:2E,4 C,2 | %87
w: cour- rent les fai-||sons, or lais- sez|cou- rir brif- faut|
 (3:2:2D,4 D,2 (3F,3 E, D,2 | C,4 z4 | (3:2:2z4 D,2 (3:2:2A,4 A,2 | (3:2:2G,4 F,2 (3:2:2G,4 D,2 | %91
w: le pre- mier, le pre-|mier|car il scait|trop bien le mes-|
 (3:2:2F,4 F,2 (3:2:2B,,4 C,2 | (3:2:2E,2 F,4 (3:2:2B,,2 C,4 | F,,2 F,2 D,2 D,2 | E,2 F,2 D,2 E,2 | %95
w: tier de les trou-|ver au gis- *|te, aus- si cla-|baut che vieux rou-|
 F,2 z F, F,2 C,2 | E,2 F,2 D,2 E,2 | F,2 z C, G,2 G,2 | C,3 D, E,2 F,2 | B,,2 D,2 C,4 | %100
w: tier a- vec cor-|bel, bru- nel, pou-|lier, les- quelz sont|seu- * * res|et- ad- vi-|
 F,,4 F,4- | F,8- | F,8- | F,4 z2 F,2 | F,E,D,E, F,G, F,2 | D,2 F,2 F,E,D,E, | F,G, F,2 D,2 D,2 | %107
w: sez, Theuc|_||* te-|nez bien le- vri- ers et le-|vret- tes par les col- letz|et voz la- cet- tes,|
 D,3 D, F,2 E,D, | C,4 B,,4 | z2 D,2 F,2 E,D, | C,2 C,2 B,,2 B,,2 |[M:3/2] C,4 F,,2 F,,4 B,,2 | %112
w: qu'ilz ne fa- cent dom-|mai- ge|de lan- * *|chier au bos- cai-|ge, ain- si au-|
 B,,4 G,,2 G,,4 C,2 | C,4 C,2 A,,4 C,2 |"^b" D,2 G,,4 A,,2 B,,2 C,2 | F,,8 z4 | F,4 F,4 B,,4 | %117
w: rons in- con- ti-|nent de la chas-|se les- ba- * te-|ment,|de la chas-|
 B,6 A,2 G,2 F,2 |"^b" E,2 D,2 C,4 F,4 | B,,4 C,8 | F,,12 ||[M:2/2] F,4 F,4 | F,6 F,2 | %123
w: se les- * *|* * ba- *|* te-|ment.|Rau rau|rau quien-|
 F,2 F,2 F,2 F,2 | F,6 F,2- | F,2 F,2 F,4- | F,2 F,2 F,4 | C,4 C,2 B,,2 | A,,2 C,2 F,,2 F,2 | %129
w: ail- le rau raux|paux paux|_ hau hau|_ hau hau|brif- faut le|veult, raux paux, raux|
 E,2 F,2 C,2 F,2 | E,2 F,2 C,2 C,2 | D,2 B,,3 B,,B,,B,, | B,,4 D,2 D,2 | D,2 D,2 A,,B,,C,C, | %134
w: paux brif- faut, brif-|faut le veult raux|paux, her là, je le|voy, jouf jouf|jouf jouf her, là, je le|
 F,,2 C,C, F,,C,F,F, | D,D,F,F, B,,2 B,B, | G,2 B,B, B,2 B,,2 | B,,B,, B,,2 z D,G,F, | %138
w: voy et qu'il a peur, et qu'il|a peur, [ha- lu- vart,] ha- lu-|vart, ha- lu- vart, et|qu'il a peur, et tost il|
 G,D, G,2 D,2 F,2 | F,F,F,F, F,2 F,2 | C,2 A,,B,, C,2 A,,B,, | C,2 A,,2 A,,A,, A,,2 | %142
w: se des- ro- be, jouf|jouf jouf jouf jouf jouf jouf|hau hau hau hau vuou vuou|vuou vuou vuou vuou hau|
 F,,2 A,,2 C,2 F,,2 | A,,2 C,2 F,,2 A,,2 | C,2 C,2 C,C,C,C, | C,2 A,,4 F,,2 | A,,3 B,, C,4 | %147
w: hau hau hau vuou|vuou vuou vuou vuou|vuou viens- cha quien- ail- le,|mec- tons sur|rou- * *|
 F,,4 z4 | F,,8- | F,,8- | F,,8- | F,,8 | F,,8- | F,,8- | F,,8- | F,,8 | F,2 E,F, C,4 | %157
w: te,|bus|_|||bus|_|||li- re li- ron|
 C,2 F,2 C,2 F,,2 | F,2 E,F, C,4 | F,,2 C,C, F,,2 F,2 | F,6 F,2 | F,2 F,2 F,2 F,2 | F,2 F,2 F,4- | %163
w: la ber- gie- re,|li- re li- ron|li- re- lon fa hau|hau de|par dieu mon a-|my cor- bel-|
 F,2 D,2 D,4 | z2 F,2 F,2 D,2 | F,2 G,2 F,4- | F,4 D,4 | D,2 D,D, F,2 G,F, | G,2 C,2 B,,2 B,,B,, | %169
w: * le veult,|ve- là qu'il|y de- meu-|* re|li- re li- ron la ber-|gie- re, li- re li-|
 F,2 G,F,/F,/ G,4 | z4 C,2 C,2 | A,,3 B,, C,2 C,2 | C,D,C,B,, A,,G,, A,,/A,,/B,, | C,4 A,,2 A,,2 | %174
w: ron li- re- lon fa,|Hau- ber-|gier, ber- gier et|li- re li- re li- re- lon fa, où|va ce che-|
 A,,2 A,,A,, A,,2 A,,2 | A,,2 A,,2 A,,3 A,,/F,,/ | A,,2 F,,2 (3:2:2F,,4 G,,2 | %177
w: min qui ver- doi- e|li- re lou- rai- ne|tu vois bien qui|
 (3:2:2A,,4 B,,2 (3:2:2C,4 B,,2 | (3:2:2A,,4 F,,2 (3:2:2A,,4 A,,2 | F,,4 A,,3 G,,/A,,/ | %180
w: ne se bou- ge,|li- re li- ron|fa, li- re li-|
 G,,4 G,,2 B,,2 | B,,2 F,,2 A,,3 G,,/A,,/ | G,,4 B,,3 A,,/B,,/ | F,,4 F,2 F,F, | F,4 F,2 F,F, | %185
w: ron, la ber-|gie- re, li- re- lon|fa, li- re- lon|fa, et le- ve-|cy, et où est|
 F,D,D,D, D,4 | B,,2 B,,B,, B,,B,,B,,B,, | F,2 F,2 F,4- | F,4 z2 _E,2 |"^b""^b" G,2 E,2 G,2 E,2 | %190
w: il, et où est il?|Et le ve- là, il vient de|cha de cha,|_ al-|lez y tost, cop-|
"^b""^b" G,2 E,2 E,3 D,/C,/ | B,,B,,B,B, G,G,B,B, | F,F,G,G, D,D,G,G, | C,C,C,D, C,D, C,2 | %194
w: pes le bois, _ _|_ le ve- là prins aus- si est|il, le ve- là prins aus- si est|il, le- ve- là prins, ve- là|
 F,,2 F,2 F,F,F,F, | B,,2 C,2 D,2 D,2 | C,3 D, E,2 F,2 | B,,2 D,2 C,4 | F,,4 F,4- | F,8 | z4 G,4- | %201
w: prins, ve- là qu'il y de-|meu- re, ve- là|qu'il _ _ y|de- meu- *|re, Theuc|_|theuc|
 G,8- | G,4 _E,4 |"^b""^-natural" E,2 C,2 C,C,C,C, | A,,B,,C,C, F,E,F,F, | C,4 _E,2 E,E, | %206
w: _|* ha|ha- no- teau, que dis tu,|ja- co- teau, que dis tu, ja- co-|teau? Es- cou- tez,|
"^b""^b""^b" E,E, E,4 A,,2 | C,C,C,C, F,,3 G,, | A,,2 C,D, E,F,G,A, | B,2 B,,2 B,,2 B,,B,, | %210
w: il est mort, jay|peur qu'il ne soit des- chi-|ré, se vous ne vous has- tes|fort, si vous ne vous|
 B,,2 B,,2 D,4 | F,2 F,F, F,4 | F,2 F,F, F,2 F,F, | F,8- | F,8 || z8 | F,4 F,4 | A,4 A,4 | %218
w: has- tes fort,|riens n'y se- ra,|riens n'y se- ra de- mou-|ré.|_||jouf jouf|jouf jouf|
 F,4 F,4 | A,4 A,4 | F,4 F,2 F,2 | F,6 F,2 | F,2 F,2 F,4 | F,4 F,2 F,2 | F,4 F,4 | F,2 F,2 F,4 | %226
w: jouf jouf|jouf jouf|vien cha brif-|faut, vien|cha cla- baur|ha bru- nel|ha ha-|cor- bel, jouf|
 F,4 F,4 | F,4 F,4 | F,4 F,2 F,2 | F,4 z4 | D,4 E,2 E,2 | B,,2 D,2 C,2 C,2 | D,2 B,,2 C,2 D,2 | %233
w: jouf jouf|jouf jouf|jouf jouf jouf|jouf|re- ti- rons|nous en brief es-|pa- ce, le plus|
"^b" E,4 D,2 B,,B,, | B,,3 B,, F,2 F,2 | B,,4 F,3 F, | C,2 F,2 B,,2 C,2 |"^b" F,,4 D,2 E,D, | %238
w: tost que nous pour-|rons, le plus tost|que nous pour-|rons, que nous pour-|rons, tra- vail- lé|
"^b" C,E,D,C, D,2 B,,2 | z6 D,2 |"^b""^b" E,D,C,E, D,C, B,,2 | z4 D,2 E,D, |"^b" C,2 F,2 G,F,E,G, | %243
w: som- mes en la chas- se|de|faim, de soif que nous a- vons,|de faim, de|soif que nous a- vons, de|
 F,E, D,2 z2 C,2 | F,2 D,2 G,2 C,2 | F,E, D,C, B,,A,, G,,2 | z C, F,2 D,2 G,2 | C,2 F,F, B,,4 | %248
w: faim, de soif has-|tez vous tost en|sen _ _ _ al- * lons,|has- tez vous tost|et sen al- lons|
 z4 C,4 | F,3 E, D,2 D,D, | _E,4 C,2 C,C, | D,2 B,,2 B,2 B,A, | G,3 F, E,2 D,2 | C,4 z4 | %254
w: en|ta- ver- ne pren- dre|gis- te, pren- dre|gis- te, où ce bon|liè- vre men- ge-|rons,|
 _E,2 E,F, C,2 D,2 | A,,2 C,3 B,,/A,,/ B,,2 | C,4 z4 | z6 C,2 | D,2 B,,C, D,E, F,2- | %259
w: où ce bon liè- vre|men- * * * ge-|rons|à|grant faim des dentz bien vis-|
 F,2 E,2 F,2 z F, |"^b" E,2 D,2 G,4 | F,4 z2 F,2 | F,4 z2 F,2 | F,4 z4 |"^b" z2 D,2 E,2 C,2 | %265
w: * * te, des|dentz bien vis-|te, je|boy, à|qui?|A mon a-|
 B,,4 z4 | z4 A,2 A,B, | G,2 A,2 B,2 G,2 | F,2 z2 C,2 C,C, | B,,2 C,2 D,2 B,,2 | F,8 | z8 | %272
w: my,|à mon a-|my, ce po- de-|lo, à mon a-|my, ce po- de-|lo,||
 D,2 D,G, F,3 E, | D,2 C,2 B,,2 z2 | z2 F,2 G,A,B,A, | G,E, F,2 F,3 G, | F,2 F,G, C,2 C,2 | %277
w: et moy à ty ce|beau de- my,|où tout d'ung coup ce|de- my lot, où tout|d'ung coup ce de- my|
 D,2 F,2 C,2 C,2 | B,,3 A,, F,,2 F,2- | F,F,D,F, D,D, A,,2 | F,F,D,F, D,D, A,,2 | %281
w: lot, d'ung coup ce|de- my lot, puis|_ nous se- rons à re- pos,|puis nous se- rons à re- pos,|
"^b""^b" D,E,F,G, A,2 A,,B,, | C,D,E,C, G,2 C,2 |"^b""^b" G,2 E,C, G,E,C,C, | %284
w: quant beut et men- gé,- quant beut|et men- gé nous au- rons,|puis de- re- chief com- men- che-|
 _E,C,B,,C, G,,2 C,C, | C,2 C,2 B,,2 G,,2 | F,,8 | z8 | z2 C,2 F,3 E, | D,2 D,F, _E,3 D, | %290
w: rons, com- men- che rons, tant qu'au-|rons ung de- my|gros,||prens là, hos-|tes- se, ve- là le|
 C,C,C,C, C,C,C,C, | C,C,C,C, C,C,C,E, | D,2 z B,, C,2 A,,2 | D,2 z B,, C,2 A,,2 | %294
w: pot, ti- rez à boi- re'aux com- pai-|gnons et a- lu- mez fas- ccaux fa-|gotz, fas- ceaux fa-|gotz, fas- ceaux fa-|
 D,F, D,2 E,2 C,2 | F,D, E,2 C,2 C,2 | F,2 G,2 C,4 | z F,E,F, A,4 | z F,E,F, A,4 | %299
w: gotz, pour aul- cuns chiens|que nous a- vons, que|nous a- vons,|noz rains au feu|mec- tre vo- lons,|
"^b""^b""^b" F,2 G,F, E,2 E,E, | F,E, D,2 D,2 E,D, |"^b" C,3 C, F,,2 F,,2 | C,2 F,4 D,B,, | %303
w: la pan- ce'à ta- ble, la|pan- ce'à ta- ble, le _|feu au doz, ap-|por- tez _ _|
 C,2 F,4 D,B,, | C,4 C,2 F,2- | F,E, D,2 B,,2 _E,2 | E,D, C,2 F,2 E,F, | G,E,F,D, C,2 z2 | %308
w: nous pou- letz chap-|pons, du beuf,|_ mou- ton bien gras|_ et gros, puis nous com-|pte- rons nos- tr'es- cot,|
 z2 F,2 E,F,G,E, | F,D, C,2 z4 | F,2 A,B, CB,A,G, | F,2 F,2 F,2 F,2 | F,2 B,,2 C,2 C,2 | %313
w: puis nous com- pte- rons|nos- tr'es- cot,|af- fin que bien nous vous pay-|ons, af- fin que|bien nous vous pay-|
[M:2/4] G,4 |[M:3/2]"^b" A,4 F,2 G,4 E,2 |"^b" F,4 D,2 E,4 C,2 | D,4 B,,2 C,2 E,2 D,2 | %317
w: |ons, et si pay-|er ne vous pou-|vons, pay- er ne pou-|
[M:2/2]"^b" C,8 |"^b" z4 z2 F,2 | F,E,D,C, B,,D,C,B,, | A,,4 F,2 F,E, |"^b" D,C,B,,E, D,C,D,B,, | %322
w: vons,|vous|as- si- gne- rons ung cre- do, cre-|do, vous as- si-|gne- rons ung cre- do, ung cre- do,|
 C,2 C,2 F,,4 | F,2 F,E, D,C,B,,A,, | D,C,B,,A,, B,,2 B,,2 | F,,8 |] %326
w: ung cre- do,|vous as- si- gne- rons ung cre-|do, ung cre- do, ung cre-|do.|

